dist/img/svg/ic_order.svg

<svg width="26" height="26" viewBox="0 0 26 26"  xmlns="http://www.w3.org/2000/svg">
<g clip-path="url(#clip0)">
<path d="M18.5556 25.773C18.4001 25.773 18.2465 25.7236 18.1188 25.6292L14.2988 22.8079C10.9147 23.2359 7.48755 22.0713 5.0742 19.6575C0.759771 15.3433 0.759771 8.32319 5.0742 4.00876C9.38842 -0.305462 16.4087 -0.305845 20.7229 4.00876C23.4514 6.73719 24.5511 10.6042 23.6712 14.3634C23.6655 14.3985 23.6572 14.4333 23.6463 14.468C23.5269 14.9634 23.3607 15.4824 23.1596 15.9808L21.4374 20.0788C21.2802 20.4532 20.8489 20.629 20.4745 20.4718C20.1001 20.3144 19.9241 19.8833 20.0815 19.5089L21.7996 15.4206C21.9688 15.0012 22.1122 14.554 22.2221 14.101C22.2237 14.093 22.2256 14.0849 22.2275 14.0769C23.0116 10.8014 22.0603 7.4264 19.6829 5.04866C15.9415 1.30765 9.85478 1.30804 6.11416 5.04866C2.37332 8.78966 2.37332 14.8766 6.11416 18.6174C8.27031 20.7736 11.3592 21.78 14.381 21.311C14.5742 21.2796 14.773 21.3294 14.9309 21.446L18.2402 23.89L18.9672 22.1602C19.1242 21.7858 19.5555 21.6101 19.9301 21.7671C20.3046 21.9246 20.4806 22.3557 20.3232 22.7301L19.2336 25.3224C19.1462 25.5304 18.9681 25.6866 18.7506 25.7466C18.6864 25.7644 18.6209 25.773 18.5556 25.773Z" />
<path d="M17.5595 9.55834H8.70063C8.37563 9.55834 8.1123 9.29501 8.1123 8.97001C8.1123 8.64501 8.37563 8.38168 8.70063 8.38168H17.5595C17.8845 8.38168 18.1478 8.64501 18.1478 8.97001C18.1478 9.29501 17.8845 9.55834 17.5595 9.55834Z" />
<path d="M17.5595 12.9315H8.70063C8.37563 12.9315 8.1123 12.6681 8.1123 12.3431C8.1123 12.0181 8.37563 11.7548 8.70063 11.7548H17.5595C17.8845 11.7548 18.1478 12.0181 18.1478 12.3431C18.1478 12.6681 17.8845 12.9315 17.5595 12.9315Z" />
<path d="M13.7649 16.3045H8.70063C8.37563 16.3045 8.1123 16.0412 8.1123 15.7162C8.1123 15.3912 8.37563 15.1279 8.70063 15.1279H13.7649C14.0899 15.1279 14.3532 15.3912 14.3532 15.7162C14.3532 16.0412 14.0899 16.3045 13.7649 16.3045Z" />
</g>
<defs>
<clipPath id="clip0">
<rect width="25" height="25"  transform="translate(0.40332 0.772995)"/>
</clipPath>
</defs>
</svg>

<svg width="26" height="26" viewBox="0 0 26 26" xmlns="http://www.w3.org/2000/svg"><g clip-path="url(#clip0)"><path d="M18.556 25.773a.735.735 0 01-.437-.144l-3.82-2.821a11.11 11.11 0 01-9.225-3.15C.76 15.342.76 8.322 5.074 4.007c4.314-4.313 11.335-4.314 15.649 0a11 11 0 012.923 10.46c-.12.495-.285 1.014-.486 1.513l-1.723 4.098a.736.736 0 01-1.356-.57L21.8 15.42a9.603 9.603 0 00.427-1.344 9.54 9.54 0 00-2.544-9.028c-3.742-3.741-9.828-3.741-13.569 0-3.74 3.74-3.74 9.828 0 13.568a9.634 9.634 0 008.267 2.694.73.73 0 01.55.135l3.31 2.444.726-1.73a.736.736 0 011.356.57l-1.09 2.592a.736.736 0 01-.677.451z"/><path d="M17.56 9.558H8.7a.588.588 0 110-1.176h8.86a.588.588 0 110 1.176zm0 3.373H8.7a.588.588 0 110-1.176h8.86a.588.588 0 110 1.176zm-3.795 3.374H8.7a.588.588 0 110-1.177h5.064a.588.588 0 110 1.177z"/></g><defs><clipPath id="clip0"><path transform="translate(.403 .773)" d="M0 0h25v25H0z"/></clipPath></defs></svg>
